icons/24/milestone.svg

<svg width="24" height="24" viewBox="0 0 24 24" xmlns="http://www.w3.org/2000/svg">
  <path fill-rule="evenodd" clip-rule="evenodd" d="M11.75 2C11.9489 2 12.1397 2.07902 12.2803 2.21967C12.421 2.36032 12.5 2.55109 12.5 2.75V6H17.395C17.797 6 18.187 6.138 18.499 6.392L21.268 8.642C21.4699 8.80609 21.6326 9.01313 21.7444 9.24804C21.8562 9.48296 21.9142 9.73984 21.9142 10C21.9142 10.2602 21.8562 10.517 21.7444 10.752C21.6326 10.9869 21.4699 11.1939 21.268 11.358L18.498 13.608C18.1862 13.8614 17.7968 13.9998 17.395 14H12.438V21.063C12.438 21.2619 12.359 21.4527 12.2183 21.5933C12.0777 21.734 11.8869 21.813 11.688 21.813C11.4891 21.813 11.2983 21.734 11.1577 21.5933C11.017 21.4527 10.938 21.2619 10.938 21.063V14H4.75C4.28587 14 3.84075 13.8156 3.51256 13.4874C3.18437 13.1592 3 12.7141 3 12.25V7.75C3 6.783 3.784 6 4.75 6H11V2.75C11 2.55109 11.079 2.36032 11.2197 2.21967C11.3603 2.07902 11.5511 2 11.75 2ZM11.75 7.5H4.75C4.6837 7.5 4.62011 7.52634 4.57322 7.57322C4.52634 7.62011 4.5 7.6837 4.5 7.75V12.25C4.5 12.388 4.612 12.5 4.75 12.5H17.395C17.4525 12.5001 17.5083 12.4803 17.553 12.444L20.322 10.194C20.3508 10.1706 20.3741 10.141 20.3901 10.1074C20.406 10.0739 20.4143 10.0372 20.4143 10C20.4143 9.96283 20.406 9.92614 20.3901 9.89258C20.3741 9.85902 20.3508 9.82944 20.322 9.806L17.552 7.556C17.5076 7.51992 17.4522 7.50016 17.395 7.5H11.75Z"/>
</svg>

<svg width="24" height="24" viewBox="0 0 24 24" xmlns="http://www.w3.org/2000/svg">
  <path fill-rule="evenodd" clip-rule="evenodd" d="M11.75 2a.75.75 0 01.75.75V6h4.895c.402 0 .792.138 1.104.392l2.769 2.25a1.75 1.75 0 010 2.716l-2.77 2.25a1.75 1.75 0 01-1.103.392h-4.957v7.063a.75.75 0 01-1.5 0V14H4.75A1.75 1.75 0 013 12.25v-4.5C3 6.783 3.784 6 4.75 6H11V2.75a.75.75 0 01.75-.75zm0 5.5h-7a.25.25 0 00-.25.25v4.5c0 .138.112.25.25.25h12.645a.25.25 0 00.158-.056l2.769-2.25a.25.25 0 000-.388l-2.77-2.25a.25.25 0 00-.157-.056H11.75z"/>
</svg>
